src/favicon.svg

<svg width="206" height="206" viewBox="0 0 206 206" fill="none" xmlns="http://www.w3.org/2000/svg">
<rect width="206" height="206" rx="15" fill="#EB5757"/>
<path d="M105.531 29C126.99 29 144.332 35.4108 157.558 48.2323L139.136 69.894C129.689 62.336 119.634 58.5571 108.972 58.5571C103.978 58.5571 100.2 59.4343 97.6353 61.1889C95.071 62.9434 93.7888 65.4402 93.7888 68.6793C93.7888 71.1087 94.4636 73.1332 95.8133 74.7527C97.2979 76.2373 99.6597 77.6544 102.899 79.0041C106.273 80.3537 111.671 82.2432 119.094 84.6726C133.94 89.3963 144.602 95.3347 151.08 102.488C157.693 109.641 161 119.426 161 131.842C161 140.885 158.571 148.915 153.712 155.933C148.988 162.817 142.173 168.215 133.265 172.129C124.358 176.043 113.831 178 101.684 178C89.2676 178 78.3357 176.043 68.8883 172.129C59.441 168.215 51.4782 163.087 45 156.743L65.4468 134.272C76.1088 143.449 87.6481 148.038 100.065 148.038C105.868 148.038 110.254 146.891 113.223 144.596C116.193 142.167 117.677 139.063 117.677 135.284C117.677 132.45 117.002 130.088 115.653 128.198C114.438 126.309 112.211 124.554 108.972 122.935C105.733 121.315 101.009 119.561 94.801 117.671C78.4706 112.543 67.0663 106.402 60.5881 99.2486C54.1099 91.9606 50.8709 82.918 50.8709 72.1209C50.8709 63.3483 53.2327 55.7228 57.9564 49.2446C62.68 42.7663 69.1582 37.7726 77.3909 34.2636C85.7586 30.7545 95.1385 29 105.531 29Z" fill="white"/>
</svg>

<svg width="206" height="206" fill="none" xmlns="http://www.w3.org/2000/svg"><rect width="206" height="206" rx="15" fill="#EB5757"/><path d="M105.531 29c21.459 0 38.801 6.41 52.027 19.232l-18.422 21.662c-9.447-7.558-19.502-11.337-30.164-11.337-4.994 0-8.772.877-11.337 2.632-2.564 1.754-3.846 4.251-3.846 7.49 0 2.43.675 4.454 2.024 6.074 1.485 1.484 3.847 2.901 7.086 4.251 3.374 1.35 8.772 3.24 16.195 5.669 14.846 4.723 25.508 10.662 31.986 17.815 6.613 7.153 9.92 16.938 9.92 29.354 0 9.043-2.429 17.073-7.288 24.091-4.724 6.884-11.539 12.282-20.447 16.196-8.907 3.914-19.434 5.871-31.581 5.871-12.416 0-23.348-1.957-32.796-5.871-9.447-3.914-17.41-9.042-23.888-15.386l20.447-22.471c10.662 9.177 22.201 13.766 34.618 13.766 5.803 0 10.189-1.147 13.158-3.442 2.97-2.429 4.454-5.533 4.454-9.312 0-2.834-.675-5.196-2.024-7.086-1.215-1.889-3.442-3.644-6.681-5.263-3.239-1.62-7.963-3.374-14.171-5.264-16.33-5.128-27.735-11.269-34.213-18.422-6.478-7.288-9.717-16.331-9.717-27.128 0-8.773 2.362-16.398 7.085-22.876 4.724-6.479 11.202-11.472 19.435-14.981C85.759 30.754 95.138 29 105.53 29Z" fill="#fff"/></svg>
